X:1
T:Resurrection Morn So Fair
T:Joseph W. Lerman
T:Resurrection Morn So Fair
T:Public Domain
T:Public Domain
T:Public Domain
C:Joseph W. Lerman
Z:Public Domain
%%score 1 ( 2 3 )
L:1/8
M:4/4
K:Bb
V:1 treble 
V:2 bass 
V:3 bass 
V:1
"^Slow and mournfully""^Solo, or Semi-Chorus of Girls" D2 | BBBB AAAA | G2 G2 D3 D | BBBB | AcBA | %5
w: 1.~The|day was dark, and all seemed lost when|to the tomb They|bore the form of|Christ the cru- ci-|
w: 2.~The|stone be- fore the door was set and|firm- ly sealed— A|guard was placed to|watch by night and|
w: 3.~Oh,|sad and lone- ly ones to- day, look|up! re- joice! The|emp- ty tomb with|prais- es may re-|
 G6 [GB][Ac] | [Bd][Bd][Ac][GB] [Ac]2 [^FA][GB] | [Ac][Ac][GB][^FA] [GB]2 [B,G][CA] | %8
w: fied. Loved ones|hoped that He would reign— But their|hopes were all in vain, For they|
w: day, For they|feared that from the dead He would|rise as He had said, Or per-|
w: sound, O- ver|mount- ain, hill and plain, Let there|ring the glad re- frain, Bring- ing|
 [DB][DB][CA][B,G] [CA][CA][B,G][A,^F] | [B,G]6 ||"^Refrain" [EA][EF] | %11
w: saw Him as up- on the cross He|died.||
w: chance His own would spir- it Him a-|way.||
w: hope and cheer wher- ev- er man is|found.||
 [DB]2 [Fd]2 [Ec][DB][DB][DG] | [EG]2 [EF]2 [EF]2 [EG][EA] | [DB]2 [DB]2 [=Ec][Ed][Ec][EB] | %14
w: |||
w: |||
w: |||
 [FA]6 [EG][EF] | [DB]2 [DB]2 [Fd][Fd][Fc][Fd] | [Ee]2 [EG]2 [GB]2 [GB][_Gc] | %17
w: |||
w: |||
w: |||
 [Fd]2 [Ge]2 [Fd][DB][Ec][EA] | [DB]6 |] %19
w: ||
w: ||
w: ||
V:2
 z2 | G,,2 [D,G,B,]2 D,,2 [D,^F,C]2 | G,,2 [D,G,B,]2 ([D,G,B,]2 [D,G,B,]2) | G,,2 [D,G,B,]2 | %4
w: |~ ~ ~ ~|~ ~ ~ *|~ ~|
 D,,2 [D,^F,C]2 | (G,,2 [D,G,B,]2 [D,G,B,]2) z2 | G,,2 [D,G,B,]2 D,,2 [D,^F,C]2 | %7
w: ~ ~|~ * *|~ ~ ~ ~|
 D,,2 [D,^F,C]2 G,,2 [D,G,]2 | [D,,D,]4 [C,,C,]2 [D,,D,]2 | ([G,,G,]2 D,B,, G,,2) || [F,A,][F,A,] | %11
w: ~ ~ ~ ~|~ ~ ~|~ * * *|But there|
 [B,,B,]2 [B,,B,]2 [B,,B,][B,,B,][B,,B,][B,,B,] | [C,B,]2 [C,A,]2 [C,A,]2 [F,A,][F,A,] | %13
w: dawned a re- sur- rect- ion|morn so fair, When the|
 [B,,B,]2 [G,B,]2 [C,B,][C,G,][C,C][C,C] | [F,C]6 [F,B,][F,A,] | %15
w: Sav- ior rose from out the|tomb; For the|
 [B,,B,]2 [B,,B,]2 B,B,[A,C][_A,B,] | [G,B,]2 [E,B,]2 [E,B,]2 [E,B,][E,B,] | %17
w: an- gels came and rolled the|way, And to- day is|
 [F,B,]2 [C,C]2 [F,B,][F,B,][F,A,][F,C] | [B,,B,]6 |] %19
w: ban- ished all earth’s gloom. *||
V:3
 x2 | x8 | x8 | x4 | x4 | x8 | x8 | x8 | x8 | x6 || x2 | x8 | x8 | x8 | x8 | x4 B,B, x2 | x8 | x8 | %18
w: |||||||||||||||stone a-|||
 x6 |] %19
w: |

